icons/linear-new-medic-health-heart-slash-dislike.svg

<svg xmlns="http://www.w3.org/2000/svg" width="32px" height="32px" viewBox="0 0 32 32" version="1.1">
    <title>linear-new-medic-health-heart-slash-dislike</title>
    <g id="linear-new-medic-health-heart-slash-dislike" stroke-width="1" fill-rule="evenodd">
        <path d="M28.6529881,7.58952313 C28.8069245,7.83960715 28.9510047,8.09987076 29.0843059,8.37007576 C32.193238,14.6719651 28.1440009,22.7885974 16.5194153,29.8545219 C16.2003021,30.0484927 15.7996979,30.0484927 15.4805847,29.8545219 C13.471546,28.6333416 11.688776,27.3807776 10.1301209,26.1116218 L11.5462103,24.6952609 C12.7757928,25.6806863 14.1591557,26.6640731 15.7000952,27.6377598 L15.9992235,27.8257578 L16.2999048,27.6377598 C26.361985,21.2797466 29.7051985,14.5081329 27.3864608,9.45608403 L27.2906941,9.25492424 L27.1872241,9.05454588 L28.6529881,7.58952313 Z M25.8633785,4.72231376 L26.2928932,4.29289322 C26.6834175,3.90236893 27.3165825,3.90236893 27.7071068,4.29289322 C28.0976311,4.68341751 28.0976311,5.31658249 27.7071068,5.70710678 L5.70710678,27.7071068 C5.31658249,28.0976311 4.68341751,28.0976311 4.29289322,27.7071068 C3.90236893,27.3165825 3.90236893,26.6834175 4.29289322,26.2928932 L7.17226402,23.4132567 C2.09211964,18.166432 0.722109233,12.8165316 2.91569412,8.37007576 C5.45270423,3.22748769 11.8941685,1.68590965 15.8770567,5.38738349 L15.9992235,5.50475782 L16.1229433,5.38738349 C18.8939777,2.81213882 22.8550788,2.77477822 25.8633785,4.72231376 Z M4.70930588,9.25492424 C2.92854431,12.8645761 4.08451912,17.3831451 8.57351927,22.010804 L24.4091406,6.17680437 C21.9108532,4.77700723 18.7390403,5.10719884 16.7893522,7.61394061 C16.3889943,8.12868646 15.6110057,8.12868646 15.2106478,7.61394061 C12.3436507,3.9278015 6.83400253,4.94810672 4.70930588,9.25492424 Z" id="&#24418;&#29366;" fill-rule="nonzero" />
    </g>
</svg>

<svg xmlns="http://www.w3.org/2000/svg" viewBox="0 0 32 32"><path fill="currentColor" d="M28.653 7.59c.154.25.298.51.431.78 3.11 6.302-.94 14.419-12.565 21.485a1 1 0 0 1-1.038 0c-2.01-1.222-3.792-2.474-5.35-3.743l1.415-1.417a45.543 45.543 0 0 0 4.154 2.943l.3.188.3-.188c10.062-6.358 13.405-13.13 11.086-18.182l-.095-.201-.104-.2zm-2.79-2.868.43-.43a1 1 0 0 1 1.414 1.415l-22 22a1 1 0 1 1-1.414-1.414l2.88-2.88C2.092 18.166.722 12.817 2.915 8.37c2.537-5.143 8.978-6.684 12.961-2.983l.122.118.124-.118c2.771-2.575 6.732-2.612 9.74-.665M4.71 9.255c-1.78 3.61-.624 8.128 3.865 12.756L24.409 6.177c-2.498-1.4-5.67-1.07-7.62 1.437a1 1 0 0 1-1.578 0c-2.867-3.686-8.377-2.666-10.502 1.64"/></svg>
